assets/images/payments/giropay-dark.svg

<svg width="100" height="60" viewBox="0 0 100 60" version="1.1" xmlns="http://www.w3.org/2000/svg" xmlns:xlink="http://www.w3.org/1999/xlink"><title>GiroPay-dark</title><desc>Created with Sketch.</desc><g id="Dark-Payment-badges" stroke="none" stroke-width="1" fill="none" fill-rule="evenodd" transform="translate(-450.000000, -1089.000000)"><g id="GiroPay-dark" transform="translate(450.000000, 1089.000000)"><rect id="Rectangle" fill="#000268" x="0" y="0" width="100" height="60" rx="4"/><path d="M24.6853403,17.0366686 L75.3146835,17.0366686 C77.8808923,17.0366686 79.9602826,19.11956 79.9602826,21.6885243 L79.9602826,38.3125854 C79.9602826,40.8800548 77.8808923,42.9633314 75.3146835,42.9633314 L24.6853403,42.9633314 C22.1202338,42.9633314 20.0397174,40.8800548 20.0397174,38.3125854 L20.0397174,21.6885243 C20.0397174,19.11956 22.1202338,17.0366686 24.6853403,17.0366686 Z" id="_92653320" fill="#FFF"/><path d="M21.946392,21.8476948 L21.946392,38.1549342 C21.946392,39.7599762 23.2468376,41.0617499 24.850961,41.0617499 L51.3761494,41.0617499 L51.3761494,18.9408789 L24.850961,18.9408789 C23.2468376,18.9408789 21.946392,20.2426287 21.946392,21.8476948 L21.946392,21.8476948 L21.946392,21.8476948 Z" id="_92186184" fill="#000268"/><path d="M53.2685629,35.8745988 L53.2685629,26.730034 L55.3318939,26.730034 L55.3318939,27.9056532 L55.356893,27.9056532 C55.8056747,26.9920384 56.7506227,26.57875 57.7694172,26.57875 C59.5604457,26.57875 60.5423047,28.2937883 60.5423047,29.8695524 C60.5423047,31.7962878 59.5104475,33.3972058 57.5836398,33.3972058 C56.8005965,33.3972058 55.9545174,33.109686 55.5307347,32.3338024 L55.5057356,32.3338024 L55.5057356,35.8745988 L53.2685629,35.8745988 Z M58.2297755,29.9198603 C58.2297755,29.0565289 57.7455451,28.3057987 56.8744669,28.3057987 C56.0530026,28.3057987 55.5057356,29.031375 55.5057356,30.0073074 C55.5057356,30.9581104 56.1279992,31.671677 56.8744669,31.671677 C57.7194197,31.671677 58.2297755,30.9581104 58.2297755,29.9198603 Z" id="_92186184-path" fill="#000268"/><path d="M68.1107609,33.247441 L66.0604682,33.247441 C66.047022,32.8964696 66.0104707,32.5601617 66.0104707,32.2212013 L65.9854716,32.2212013 C65.4758829,33.0357439 64.853643,33.3972058 63.9336935,33.3972058 C62.6530215,33.3972058 61.5096157,32.7602344 61.5096157,31.3458596 C61.5096157,29.3571924 63.661006,29.1188221 64.853643,29.1188221 C65.2140055,29.1188221 65.6128134,29.1571197 65.8985629,29.2074276 C65.8851404,28.3189423 65.2259413,28.080572 64.4190265,28.080572 C63.6979171,28.080572 62.9753223,28.2183271 62.3556955,28.5692978 L62.3176337,27.0423219 C63.113739,26.7165044 63.9467561,26.57875 64.9036405,26.57875 C66.5577377,26.57875 67.986893,27.2927019 67.986893,29.2817311 L67.986893,31.7088407 C67.986893,32.2212013 68.0118914,32.7350804 68.1107609,33.247441 Z M63.5979458,31.1829505 C63.5979458,31.6345127 63.9956274,31.8968792 64.5178953,31.8968792 C65.3639751,31.8968792 65.8985629,31.1210188 65.8985629,30.3582788 C65.6128134,30.3447731 65.2890021,30.3211145 64.9536143,30.3211145 C64.194084,30.3211145 63.5979458,30.557965 63.5979458,31.1829505 Z" id="_92186184-path" fill="#000268"/><path d="M69.1175954,35.8745988 C69.5779293,35.975214 70.0375449,36.0258834 70.5098152,36.0258834 C72.5616177,36.0258834 73.0458245,34.4365898 73.6800245,32.7973742 L76.0556139,26.730034 L73.8169313,26.730034 L72.4866211,30.9832644 L72.461622,30.9832644 L71.0690186,26.730034 L68.6580042,26.730034 L71.2809221,33.3972058 C71.1190161,33.9730173 70.6967196,34.2988348 70.1490928,34.2988348 C69.8372179,34.2988348 69.564891,34.2605372 69.2660788,34.1610797 L69.1175954,35.8745988 L69.1175954,35.8745988 Z" id="_92186184-path" fill="#000268"/><path d="M30.2467902,26.730034 L32.2735699,26.730034 L32.2735699,32.4847004 C32.2735699,35.1621661 30.9813214,36.0258834 28.3703399,36.0258834 C27.300061,36.0258834 26.417047,35.8006574 25.8958811,35.612595 L26.0077888,33.8356488 C26.6908601,34.17309 27.263486,34.3731628 28.1964982,34.3731628 C29.4887467,34.3731628 30.1848563,33.7601869 30.1848563,32.4847004 L30.1848563,32.1337535 L30.1598578,32.1337535 C29.6256529,32.8964696 28.8795451,33.247441 27.9831086,33.247441 C26.2066297,33.247441 25.0997994,31.8968792 25.0997994,29.9701438 C25.0997994,28.031398 26.0077888,26.57875 28.0215295,26.57875 C28.978031,26.57875 29.7494971,27.1046395 30.2232772,27.9056532 L30.2467902,27.9056532 L30.2467902,26.730034 Z M27.4119688,29.9330039 C27.4119688,30.9461 28.0095938,31.5207783 28.680705,31.5207783 C29.475684,31.5207783 30.109884,30.8455093 30.109884,29.8443991 C30.109884,29.1188221 29.6875868,28.3057987 28.680705,28.3057987 C27.8476878,28.3057987 27.4119688,29.0445186 27.4119688,29.9330039 Z" id="_47303032-copy" fill="#FFF"/><polygon id="_47303032-path" fill="#FFF" points="36.0559286 24.0154046 33.817629 24.0154046 33.817629 25.6666306 36.0559286 25.6666306"/><polygon id="_47303032-path" fill="#FFF" points="33.8187552 33.247441 36.0559286 33.247441 36.0559286 26.730034 33.8187552 26.730034"/><path d="M42.2873873,26.6542113 C42.0635474,26.6174091 41.7897343,26.57875 41.5293431,26.57875 C40.5594197,26.57875 40.0002163,27.1046395 39.6144711,27.9308072 L39.589472,27.9308072 L39.589472,26.730034 L37.5507566,26.730034 L37.5507566,33.247441 L39.7883129,33.247441 L39.7883129,30.4960332 C39.7883129,29.2194373 40.3736416,28.4566967 41.4174353,28.4566967 C41.6793126,28.4566967 41.9266405,28.4566967 42.1754795,28.5306388 L42.2873873,26.6542113 L42.2873873,26.6542113 Z" id="_47303032-path" fill="#FFF"/><path d="M46.1406678,33.3972058 C44.0023395,33.3972058 42.374344,32.1472592 42.374344,29.9952971 C42.374344,27.8302165 44.0023395,26.57875 46.1406678,26.57875 C48.2793546,26.57875 49.908477,27.8302165 49.908477,29.9952971 C49.908477,32.1472592 48.2793546,33.3972058 46.1406678,33.3972058 Z M46.1406678,31.8214418 C47.1736513,31.8214418 47.5963077,30.9581104 47.5963077,29.9952971 C47.5963077,29.0193646 47.1736513,28.1560332 46.1406678,28.1560332 C45.1088098,28.1560332 44.6865133,29.0193646 44.6865133,29.9952971 C44.6865133,30.9581104 45.1088098,31.8214418 46.1406678,31.8214418 Z" id="_47303032-path" fill="#FFF"/></g></g></svg>

<svg width="100" height="60" xmlns="http://www.w3.org/2000/svg"><g fill="none" fill-rule="evenodd"><rect fill="#000268" width="100" height="60" rx="4"/><path d="M24.685 17.037h50.63a4.649 4.649 0 014.645 4.652v16.624c0 2.567-2.08 4.65-4.645 4.65h-50.63a4.65 4.65 0 01-4.645-4.65V21.689a4.65 4.65 0 014.645-4.652z" fill="#FFF"/><path d="M21.946 21.848v16.307c0 1.605 1.3 2.907 2.905 2.907h26.525V18.94H24.851a2.906 2.906 0 00-2.905 2.907zm31.323 14.027V26.73h2.063v1.176h.025c.449-.914 1.394-1.327 2.412-1.327 1.791 0 2.773 1.715 2.773 3.29 0 1.927-1.032 3.528-2.958 3.528-.783 0-1.63-.287-2.053-1.063h-.025v3.54h-2.237zm4.96-5.955c0-.863-.483-1.614-1.355-1.614-.821 0-1.368.725-1.368 1.701 0 .951.622 1.665 1.368 1.665.845 0 1.356-.714 1.356-1.752zm9.881 3.327h-2.05c-.013-.35-.05-.687-.05-1.026h-.025c-.51.815-1.131 1.176-2.051 1.176-1.281 0-2.424-.637-2.424-2.051 0-1.989 2.151-2.227 3.344-2.227.36 0 .759.038 1.045.088-.014-.888-.673-1.126-1.48-1.126-.721 0-1.444.137-2.063.488l-.038-1.527c.796-.325 1.629-.463 2.586-.463 1.654 0 3.083.714 3.083 2.703v2.427c0 .512.025 1.026.124 1.538zm-4.512-2.064c0 .452.398.714.92.714.846 0 1.38-.776 1.38-1.539-.285-.013-.609-.037-.944-.037-.76 0-1.356.237-1.356.862zm5.52 4.692c.46.1.92.15 1.392.15 2.052 0 2.536-1.588 3.17-3.228l2.376-6.067h-2.24l-1.33 4.253h-.024l-1.393-4.253h-2.411l2.623 6.667c-.162.576-.584.902-1.132.902a2.66 2.66 0 01-.883-.138l-.148 1.714z" fill="#000268"/><path d="M30.247 26.73h2.027v5.755c0 2.677-1.293 3.54-3.904 3.54a7.48 7.48 0 01-2.474-.412l.112-1.777c.683.337 1.255.537 2.188.537 1.293 0 1.989-.613 1.989-1.888v-.351h-.025c-.534.762-1.28 1.113-2.177 1.113-1.776 0-2.883-1.35-2.883-3.277 0-1.939.908-3.391 2.922-3.391.956 0 1.727.526 2.201 1.327h.024V26.73zm-2.835 3.203c0 1.013.598 1.588 1.269 1.588.795 0 1.429-.675 1.429-1.677 0-.725-.422-1.538-1.43-1.538-.832 0-1.268.739-1.268 1.627zm8.644-5.918h-2.238v1.652h2.238zm-2.237 9.232h2.237V26.73h-2.237zm8.468-6.593a4.81 4.81 0 00-.758-.075c-.97 0-1.529.526-1.915 1.352h-.025V26.73h-2.038v6.517h2.237v-2.751c0-1.277.586-2.04 1.63-2.04.261 0 .509 0 .757.075l.112-1.877zm3.853 6.743c-2.138 0-3.766-1.25-3.766-3.402 0-2.165 1.628-3.416 3.767-3.416 2.138 0 3.767 1.251 3.767 3.416 0 2.152-1.629 3.402-3.767 3.402zm0-1.576c1.034 0 1.456-.863 1.456-1.826 0-.976-.422-1.839-1.455-1.839-1.032 0-1.454.863-1.454 1.84 0 .962.422 1.825 1.454 1.825z" fill="#FFF"/></g></svg>
